assets/svg/1F6C4.svg

<svg xmlns="http://www.w3.org/2000/svg" viewBox="0 0 64 64" enable-background="new 0 0 64 64"><path fill="#1b75bb" d="M64.042,57.137c0,3.816-3.088,6.908-6.904,6.908H6.9c-3.81,0-6.9-3.092-6.9-6.908V6.904    C0,3.092,3.09,0,6.9,0h50.237c3.816,0,6.904,3.092,6.904,6.904V57.137z"/><path fill="#0867a3" d="m0 48.765v8.372c0 3.816 3.09 6.908 6.9 6.908h50.24c3.816 0 6.904-3.092 6.904-6.908v-50.23c-10.937 39.724-50.25 42.24-64.04 41.861"/><g fill="#fff"><path d="m46.562 44.41c0 2.215-2.238 4.01-4.993 4.01h-18.925c-2.754 0-4.989-1.792-4.989-4.01v-25.804c0-2.211 2.234-4.01 4.989-4.01h18.926c2.755 0 4.993 1.798 4.993 4.01v25.804"/><path d="m54.13 45.11c0 1.83-1.165 3.311-2.608 3.311h-9.898c-1.44 0-2.608-1.48-2.608-3.311v-21.315c0-1.827 1.168-3.309 2.608-3.309h9.898c1.443 0 2.608 1.481 2.608 3.309v21.315"/><path d="m48.888 51.629c2.896 0 5.24.324 5.24.724v2.75c0 .397-2.345.724-5.24.724h-33.735c-2.89 0-5.239-.326-5.239-.724v-2.75c0-.399 2.349-.724 5.239-.724h33.735"/><path d="m25.07 45.11c0 1.83-1.17 3.311-2.616 3.311h-9.92c-1.446 0-2.616-1.48-2.616-3.311v-21.315c0-1.827 1.17-3.309 2.616-3.309h9.92c1.446 0 2.616 1.481 2.616 3.309v21.315"/><path d="m32.02 8.185c-5.412 0-9.796 5.51-9.796 12.3 0 6.789 4.385 12.294 9.796 12.294 5.408 0 9.795-5.506 9.795-12.294 0-6.79-4.386-12.3-9.795-12.3m0 22.482c-4.481 0-8.112-4.558-8.112-10.182s3.631-10.184 8.112-10.184c4.478 0 8.111 4.56 8.111 10.184s-3.633 10.182-8.111 10.182"/></g></svg>

<?xml version="1.0" encoding="UTF-8" standalone="no"?>
<!-- Generator: Adobe Illustrator 16.0.0, SVG Export Plug-In . SVG Version: 6.00 Build 0)  -->

<svg
   xmlns:dc="http://purl.org/dc/elements/1.1/"
   xmlns:cc="http://creativecommons.org/ns#"
   xmlns:rdf="http://www.w3.org/1999/02/22-rdf-syntax-ns#"
   xmlns:svg="http://www.w3.org/2000/svg"
   xmlns="http://www.w3.org/2000/svg"
   xmlns:sodipodi="http://sodipodi.sourceforge.net/DTD/sodipodi-0.dtd"
   xmlns:inkscape="http://www.inkscape.org/namespaces/inkscape"
   version="1.1"
   id="Layer_1"
   x="0px"
   y="0px"
   width="64px"
   height="64px"
   viewBox="0 0 64 64"
   enable-background="new 0 0 64 64"
   xml:space="preserve"
   inkscape:version="0.48.5 r10040"
   sodipodi:docname="1F6C4.svg"
   inkscape:export-filename="D:\TESTINGEMOJI\SVGTEST\1F6C4.png"
   inkscape:export-xdpi="90"
   inkscape:export-ydpi="90"><metadata
   id="metadata8023"><rdf:RDF><cc:Work
       rdf:about=""><dc:format>image/svg+xml</dc:format><dc:type
         rdf:resource="http://purl.org/dc/dcmitype/StillImage" /><dc:title></dc:title></cc:Work></rdf:RDF></metadata><defs
   id="defs8021" /><sodipodi:namedview
   pagecolor="#ffffff"
   bordercolor="#666666"
   borderopacity="1"
   objecttolerance="10"
   gridtolerance="10"
   guidetolerance="10"
   inkscape:pageopacity="0"
   inkscape:pageshadow="2"
   inkscape:window-width="640"
   inkscape:window-height="480"
   id="namedview8019"
   showgrid="false"
   inkscape:zoom="3.6875"
   inkscape:cx="32"
   inkscape:cy="32"
   inkscape:window-x="514"
   inkscape:window-y="250"
   inkscape:window-maximized="0"
   inkscape:current-layer="Layer_1" />
<g
   id="g7999">
	<g
   id="g8001">
		<path
   fill="#1B75BB"
   d="M64.042,57.137c0,3.816-3.088,6.908-6.904,6.908H6.9c-3.81,0-6.9-3.092-6.9-6.908V6.904    C0,3.092,3.09,0,6.9,0h50.237c3.816,0,6.904,3.092,6.904,6.904V57.137z"
   id="path8003" />
		<path
   fill="#0867A3"
   d="M0,48.765v8.372c0,3.816,3.09,6.908,6.9,6.908h50.237c3.816,0,6.904-3.092,6.904-6.908V6.904    C53.104,46.628,13.793,49.146,0,48.765z"
   id="path8005" />
	</g>
	<g
   id="g8007">
		<path
   fill="#FFFFFF"
   d="M46.562,44.413c0,2.215-2.238,4.007-4.993,4.007H22.644c-2.754,0-4.989-1.792-4.989-4.007V18.609    c0-2.211,2.234-4.009,4.989-4.009h18.926c2.755,0,4.993,1.798,4.993,4.009V44.413z"
   id="path8009" />
		<path
   fill="#FFFFFF"
   d="M54.128,45.109c0,1.83-1.165,3.311-2.608,3.311h-9.898c-1.44,0-2.608-1.48-2.608-3.311V23.794    c0-1.827,1.168-3.309,2.608-3.309h9.898c1.443,0,2.608,1.481,2.608,3.309V45.109z"
   id="path8011" />
		<path
   fill="#FFFFFF"
   d="M48.888,51.629c2.896,0,5.24,0.324,5.24,0.724v2.75c0,0.397-2.345,0.724-5.24,0.724H15.153    c-2.89,0-5.239-0.326-5.239-0.724v-2.75c0-0.399,2.349-0.724,5.239-0.724H48.888z"
   id="path8013" />
		<path
   fill="#FFFFFF"
   d="M25.067,45.109c0,1.83-1.17,3.311-2.616,3.311h-9.92c-1.446,0-2.616-1.48-2.616-3.311V23.794    c0-1.827,1.17-3.309,2.616-3.309h9.92c1.446,0,2.616,1.481,2.616,3.309V45.109z"
   id="path8015" />
		<path
   fill="#FFFFFF"
   d="M32.022,8.185c-5.412,0-9.796,5.51-9.796,12.3c0,6.789,4.385,12.294,9.796,12.294    c5.408,0,9.795-5.506,9.795-12.294C41.817,13.695,37.431,8.185,32.022,8.185z M32.022,30.667c-4.481,0-8.112-4.558-8.112-10.182    s3.631-10.184,8.112-10.184c4.478,0,8.111,4.56,8.111,10.184S36.5,30.667,32.022,30.667z"
   id="path8017" />
	</g>
</g>
</svg>
